public/showcase/resources/images/home/lufthansa.svg

<svg height="21" viewBox="0 0 115 21" width="115" xmlns="http://www.w3.org/2000/svg" xmlns:xlink="http://www.w3.org/1999/xlink"><mask id="a" fill="#fff"><path d="m10.2898864 10.6119774v-10.54403224h-9.65562219v10.54403224z" fill="none"/></mask><g fill="#fff" fill-rule="evenodd" transform=""><path d="m57.5465227 6.14968065h.5148864v-2.13522581h-1.6740341c-2.188267 0-3.3467614 1.20106451-3.3467614 3.60319355v.26690322h-1.2872159v2.13590319h1.2872159v7.6074194h3.0899716v-7.6074194h1.8021023v-2.13590319h-1.8021023v-.26690322c0-.93416129.5148864-1.46796774 1.4159375-1.46796774"/><path d="m59.7345938 7.88461935h-1.287216v2.13590325h1.287216v4.6708064c0 2.0024516.9017045 2.9366129 2.7038068 2.9366129h2.3169886v-2.2686774h-.643608l-1.0297727-.134129c-.1287216-.2662258-.2574432-.6672581-.2574432-1.3345161v-3.8700968h1.8027557v-2.13590325h-1.8027557v-3.06938709h-3.0899715z"/><path d="m68.4895568 4.01425161h-3.090625v13.61409679h3.090625v-5.6063226c0-1.3345161.5148864-2.0017742 1.5440057-2.0017742.9017045 0 1.2878693.6672581 1.2878693 2.0017742v5.6063226h3.0899716v-5.6063226c0-1.3345161-.1287216-2.26799999-.3861648-2.80248386-.6442613-1.06761291-1.5459659-1.60141936-2.96125-1.60141936-1.2872159 0-2.0595454.40035484-2.5744318 1.33451613z"/><path d="m79.6887926 13.4905355 1.9308239-.5338065v.8013871c0 1.3345162-.643608 2.0017742-2.1876137 2.0017742-.7716761 0-1.2872159-.2669032-1.2872159-.9348387 0-.6672581.5155398-1.0669355 1.5440057-1.3345161m.5155398-3.87009679c.9010511 0 1.2872159.26622581 1.2872159.93348389 0 .4010322-.2567898.667258-.9003977.8013871l-2.7044603.533129c-1.8014488.5344839-2.7038068 1.6020968-2.7038068 3.0707419 0 .9334839.25875 1.600742 1.0310796 2.2686775.6436079.5338064 1.5433522.8007096 2.5744318.8007096 1.0297727 0 2.058892-.4003548 3.090625-1.2010645l.1280682.8007097h2.8312216l-.2567898-1.3345161v-5.0725162c0-2.5355806-1.4152841-3.73664512-4.3771875-3.73664512-2.9605966 0-4.5059091 1.20106452-4.5059091 3.47041932h2.8325284c0-.8013871.514233-1.33451609 1.6733807-1.33451609"/><path d="m88.4440824 7.88461935h-2.8325284v9.74332255h3.0893182v-5.6056451c0-1.3345162.5148863-2.0017742 1.5459659-2.0017742.9003977 0 1.4159375.667258 1.4159375 2.0017742v5.6056451h3.0899716v-5.6056451c0-1.2010645-.25875-2.13522583-.5155398-2.80316132-.643608-1.06693548-1.5453125-1.60141935-2.9619034-1.60141935-1.0284659 0-2.0595455.40035484-2.7031534 1.33519355z"/><path d="m98.8711847 10.4209452c0-.53448391.3874716-.80070972 1.1591473-.80070972.899745 0 1.287216.40035482 1.415284 1.33451612h2.962557l-.516193-1.73554837c-.514886-1.20106452-1.802102-1.73487097-3.732926-1.73487097-3.090625 0-4.5065625 1.0676129-4.5065625 3.33696774 0 1.4679677 1.0310795 2.402129 3.2186932 2.9366129h.9017045c1.1571878.2662258 1.8014488.6672581 1.8014488 1.2010645 0 .5338065-.514233.8007097-1.544006.8007097-1.0310792 0-1.6746871-.4003548-1.6746871-1.2017419v-.1327742h-2.9592898c0 2.402129 1.5440057 3.6031935 4.8907669 3.6031935 2.833835 0 4.377188-1.0676129 4.377188-3.3369677 0-1.600742-1.159148-2.6690323-3.346762-3.0693871l-1.030426-.2669032c-.9003976-.1334517-1.4159373-.4003549-1.4159373-.9341613"/><path d="m5.1401733 6.07394516 1.93147727-.53380645v.8013871c0 1.33451613-.64360796 2.00177419-2.18957387 2.00177419-.77232954 0-1.2865625-.26690323-1.2865625-.93483871 0-.66725806.51423296-1.06693548 1.5446591-1.33451613m.51553977-3.87009677c.90039773 0 1.28786932.2662258 1.28786932.93348387 0 .40103226-.25940341.66725806-.90301137.80138709l-2.70315341.53312904c-1.80275568.53448387-2.7031534 1.60209677-2.7031534 3.07074193 0 .93348387.25678977 1.60074194 1.03042613 2.26867742.64295455.53380646 1.54465909.80070966 2.57443182.80070966 1.02911932 0 2.06019886-.4003548 3.08931818-1.2010645l.129375.8007097h2.83252836l-.2580965-1.33451615v-5.07251613c0-2.53558064-1.41724436-3.73664516-4.37653413-3.73664516-2.83383523 0-4.3771875 1.20106452-4.50525568 3.47041936h2.83122159c0-.8013871.51553977-1.33451613 1.67403409-1.33451613" mask="url(#a)" transform="translate(104.545455 7.41659)"/><path d="m9.65529545.96945484c2.57508525 0 4.63463065.93348387 6.43738635 2.66903226 1.6733807 1.869 2.5744318 4.00490322 2.5744318 6.5404839 0 2.5355806-.9010511 4.6714838-2.5744318 6.5398064-1.8027557 1.7355484-3.8623011 2.6690323-6.30866475 2.6690323-2.44571023 0-4.5059091-.9334839-6.30735796-2.6690323-1.67403409-1.8683226-2.57508523-4.0042258-2.57508523-6.5398064 0-2.53558068.90105114-4.6714839 2.57508523-6.5404839 1.80144886-1.73554839 3.86164773-2.66903226 6.17863636-2.66903226m7.08034095 2.00245161c-1.8014489-2.00245161-4.1197444-2.9366129-6.82224435-2.9366129-2.70380682 0-5.02144887.93416129-7.08099432 2.9366129-1.93082387 2.0017742-2.83252841 4.40390323-2.83252841 7.20706455 0 2.9366129.90170454 5.2046129 2.83252841 7.2070645 1.93147727 2.0017742 4.24846591 2.9366129 6.95161932 2.9366129 2.70380685 0 5.02079545-.9348387 6.95161935-2.9366129 1.9314772-2.0024516 2.8325284-4.2704516 2.8325284-7.2070645 0-2.80316132-.9010512-5.20529035-2.8325284-7.20706455" transform="translate(0 .642397)"/><path d="m3.21849716 8.55174194-.12872159.53448387-1.41659091-.40103226-.12806818.53380645c1.02977272.26758065 2.31698863.9348387 3.99036932 1.8696774 2.96125 1.8683226 6.0512216 3.3362903 9.2692614 4.137l.9017045-.8007097h-.6436079c-1.9314773 0-3.4761364-.667258-4.6346307-2.0017742 1.2872159-.6679354 2.7031534-1.0682903 4.3765341-1.0682903l1.0297727.1334516.3868182-.5338064h-1.1584943l-2.7038069.134129.1287216-.4010322h3.9910228l.3861647-.5338065h-4.1197443l.1287216-.26690322h4.2478125l.2580966-.40035483-4.2484659-.13345162.1287216-.40035484 4.3771875.13345162.3861647-.40103226-3.4761363-.26622581-3.475483.26622581c-.5148863 1.60209675-1.54531248 2.40348385-3.08931816 2.40348385-.64426136 0-1.41659091-.2675806-2.31829545-.8013871l-.38616478-.2669032.129375-.13345162 2.05889205.80070972.129375-.2669033z"/><path d="m35.9180284 4.01425161h-3.2186932v13.61409679h8.7550284v-2.6697097h-5.5363352z"/><path d="m51.1094631 7.88461935h-3.0899716v5.60564515c0 1.3351936-.5148864 2.0024516-1.5446591 2.0024516-.9017046 0-1.2872159-.667258-1.2872159-2.0024516v-5.60564515h-3.0893182v5.87322585c0 1.0676129.1280682 2.0024516.5142329 2.5355806.5148864 1.0676129 1.416591 1.6014194 2.9605966 1.6014194 1.0310796 0 1.9314773-.4003549 2.7038069-1.2010646v.9341613h2.8325284z"/></g></svg>

<?xml version="1.0" encoding="UTF-8"?>
<svg width="115px" height="21px" viewBox="0 0 115 21" version="1.1" xmlns="http://www.w3.org/2000/svg" xmlns:xlink="http://www.w3.org/1999/xlink">
    <!-- Generator: sketchtool 45.2 (43514) - http://www.bohemiancoding.com/sketch -->
    <title>4EBB3ACF-A2EA-40FD-8A1F-535021EBD21F</title>
    <desc>Created with sketchtool.</desc>
    <defs>
        <polygon id="path-1" points="10.2898864 10.6119774 10.2898864 0.0679451613 0.634264205 0.0679451613 0.634264205 10.6119774 10.2898864 10.6119774"></polygon>
    </defs>
    <g id="Page-1" stroke="none" stroke-width="1" fill="none" fill-rule="evenodd">
        <g id="PrimeReact-Showcase---Homepage" transform="translate(-546.000000, -1203.000000)">
            <g id="homepage" transform="translate(301.000000, 70.000000)">
                <g id="brands" transform="translate(0.000000, 1019.000000)">
                    <g transform="translate(109.000000, 27.000000)" id="lufthansa">
                        <g transform="translate(136.000000, 87.000000)">
                            <path d="M57.5465227,6.14968065 L58.0614091,6.14968065 L58.0614091,4.01445484 L56.387375,4.01445484 C54.199108,4.01445484 53.0406136,5.21551935 53.0406136,7.61764839 L53.0406136,7.88455161 L51.7533977,7.88455161 L51.7533977,10.0204548 L53.0406136,10.0204548 L53.0406136,17.6278742 L56.1305852,17.6278742 L56.1305852,10.0204548 L57.9326875,10.0204548 L57.9326875,7.88455161 L56.1305852,7.88455161 L56.1305852,7.61764839 C56.1305852,6.6834871 56.6454716,6.14968065 57.5465227,6.14968065" id="Fill-1" fill="#FFFFFF"></path>
                            <path d="M59.7345938,7.88461935 L58.4473778,7.88461935 L58.4473778,10.0205226 L59.7345938,10.0205226 L59.7345938,14.691329 C59.7345938,16.6937806 60.6362983,17.6279419 62.4384006,17.6279419 L64.7553892,17.6279419 L64.7553892,15.3592645 L64.1117812,15.3592645 L63.0820085,15.2251355 C62.9532869,14.9589097 62.8245653,14.5578774 62.8245653,13.8906194 L62.8245653,10.0205226 L64.627321,10.0205226 L64.627321,7.88461935 L62.8245653,7.88461935 L62.8245653,4.81523226 L59.7345938,4.81523226 L59.7345938,7.88461935 Z" id="Fill-3" fill="#FFFFFF"></path>
                            <path d="M68.4895568,4.01425161 L65.3989318,4.01425161 L65.3989318,17.6283484 L68.4895568,17.6283484 L68.4895568,12.0220258 C68.4895568,10.6875097 69.0044432,10.0202516 70.0335625,10.0202516 C70.935267,10.0202516 71.3214318,10.6875097 71.3214318,12.0220258 L71.3214318,17.6283484 L74.4114034,17.6283484 L74.4114034,12.0220258 C74.4114034,10.6875097 74.2826818,9.75402581 74.0252386,9.21954194 C73.3809773,8.15192903 72.4792727,7.61812258 71.0639886,7.61812258 C69.7767727,7.61812258 69.0044432,8.01847742 68.4895568,8.95263871 L68.4895568,4.01425161 Z" id="Fill-5" fill="#FFFFFF"></path>
                            <path d="M79.6887926,13.4905355 L81.6196165,12.956729 L81.6196165,13.7581161 C81.6196165,15.0926323 80.9760085,15.7598903 79.4320028,15.7598903 C78.6603267,15.7598903 78.1447869,15.4929871 78.1447869,14.8250516 C78.1447869,14.1577935 78.6603267,13.7581161 79.6887926,13.4905355 M80.2043324,9.62043871 C81.1053835,9.62043871 81.4915483,9.88666452 81.4915483,10.5539226 C81.4915483,10.9549548 81.2347585,11.2211806 80.5911506,11.3553097 L77.8866903,11.8884387 C76.0852415,12.4229226 75.1828835,13.4905355 75.1828835,14.9591806 C75.1828835,15.8926645 75.4416335,16.5599226 76.2139631,17.2278581 C76.857571,17.7616645 77.7573153,18.0285677 78.7883949,18.0285677 C79.8181676,18.0285677 80.8472869,17.6282129 81.8790199,16.8275032 L82.0070881,17.6282129 L84.8383097,17.6282129 L84.5815199,16.2936968 L84.5815199,11.2211806 C84.5815199,8.6856 83.1662358,7.48453548 80.2043324,7.48453548 C77.2437358,7.48453548 75.6984233,8.6856 75.6984233,10.9549548 L78.5309517,10.9549548 C78.5309517,10.1535677 79.0451847,9.62043871 80.2043324,9.62043871" id="Fill-7" fill="#FFFFFF"></path>
                            <path d="M88.4440824,7.88461935 L85.611554,7.88461935 L85.611554,17.6279419 L88.7008722,17.6279419 L88.7008722,12.0222968 C88.7008722,10.6877806 89.2157585,10.0205226 90.2468381,10.0205226 C91.1472358,10.0205226 91.6627756,10.6877806 91.6627756,12.0222968 L91.6627756,17.6279419 L94.7527472,17.6279419 L94.7527472,12.0222968 C94.7527472,10.8212323 94.4939972,9.88707097 94.2372074,9.21913548 C93.5935994,8.1522 92.6918949,7.61771613 91.275304,7.61771613 C90.2468381,7.61771613 89.2157585,8.01807097 88.5721506,8.95290968 L88.4440824,7.88461935 Z" id="Fill-9" fill="#FFFFFF"></path>
                            <path d="M98.8711847,10.4209452 C98.8711847,9.88646129 99.2586563,9.62023548 100.030332,9.62023548 C100.930077,9.62023548 101.317548,10.0205903 101.445616,10.9547516 L104.408173,10.9547516 L103.89198,9.21920323 C103.377094,8.01813871 102.089878,7.48433226 100.159054,7.48433226 C97.068429,7.48433226 95.6524915,8.55194516 95.6524915,10.8213 C95.6524915,12.2892677 96.683571,13.223429 98.8711847,13.7579129 L99.7728892,13.7579129 C100.930077,14.0241387 101.574338,14.425171 101.574338,14.9589774 C101.574338,15.4927839 101.060105,15.7596871 100.030332,15.7596871 C98.9992528,15.7596871 98.3556449,15.3593323 98.3556449,14.5579452 L98.3556449,14.425171 L95.3963551,14.425171 C95.3963551,16.8273 96.9403608,18.0283645 100.287122,18.0283645 C103.120957,18.0283645 104.66431,16.9607516 104.66431,14.6913968 C104.66431,13.0906548 103.505162,12.0223645 101.317548,11.6220097 L100.287122,11.3551065 C99.3867244,11.2216548 98.8711847,10.9547516 98.8711847,10.4209452" id="Fill-11" fill="#FFFFFF"></path>
                            <g id="Group-15" transform="translate(104.545455, 7.416590)">
                                <mask id="mask-2" fill="white">
                                    <use xlink:href="#path-1"></use>
                                </mask>
                                <g id="Clip-14"></g>
                                <path d="M5.1401733,6.07394516 L7.07165057,5.54013871 L7.07165057,6.34152581 C7.07165057,7.67604194 6.42804261,8.3433 4.8820767,8.3433 C4.10974716,8.3433 3.5955142,8.07639677 3.5955142,7.40846129 C3.5955142,6.74120323 4.10974716,6.34152581 5.1401733,6.07394516 M5.65571307,2.20384839 C6.5561108,2.20384839 6.94358239,2.47007419 6.94358239,3.13733226 C6.94358239,3.53836452 6.68417898,3.80459032 6.04057102,3.93871935 L3.33741761,4.47184839 C1.53466193,5.00633226 0.634264205,6.07394516 0.634264205,7.54259032 C0.634264205,8.47607419 0.891053977,9.14333226 1.66469034,9.81126774 C2.30764489,10.3450742 3.20934943,10.6119774 4.23912216,10.6119774 C5.26824148,10.6119774 6.29932102,10.2116226 7.32844034,9.4109129 L7.45781534,10.2116226 L10.2903437,10.2116226 L10.0322472,8.87710645 L10.0322472,3.80459032 C10.0322472,1.26900968 8.61500284,0.0679451613 5.65571307,0.0679451613 C2.82187784,0.0679451613 1.27852557,1.26900968 1.15045739,3.53836452 L3.98167898,3.53836452 C3.98167898,2.73697742 4.49721875,2.20384839 5.65571307,2.20384839" id="Fill-13" fill="#FFFFFF" mask="url(#mask-2)"></path>
                            </g>
                            <g id="Group-18" transform="translate(0.000000, 0.642397)" fill="#FFFFFF">
                                <path d="M9.65529545,0.969454839 C12.2303807,0.969454839 14.2899261,1.90293871 16.0926818,3.6384871 C17.7660625,5.5074871 18.6671136,7.64339032 18.6671136,10.178971 C18.6671136,12.7145516 17.7660625,14.8504548 16.0926818,16.7187774 C14.2899261,18.4543258 12.2303807,19.3878097 9.78401705,19.3878097 C7.33830682,19.3878097 5.27810795,18.4543258 3.47665909,16.7187774 C1.802625,14.8504548 0.901573864,12.7145516 0.901573864,10.178971 C0.901573864,7.64339032 1.802625,5.5074871 3.47665909,3.6384871 C5.27810795,1.90293871 7.33830682,0.969454839 9.65529545,0.969454839 M16.7356364,2.97190645 C14.9341875,0.969454839 12.615892,0.0352935484 9.91339205,0.0352935484 C7.20958523,0.0352935484 4.89194318,0.969454839 2.83239773,2.97190645 C0.901573864,4.97368065 -0.000130681818,7.37580968 -0.000130681818,10.178971 C-0.000130681818,13.1155839 0.901573864,15.3835839 2.83239773,17.3860355 C4.763875,19.3878097 7.08086364,20.3226484 9.78401705,20.3226484 C12.4878239,20.3226484 14.8048125,19.3878097 16.7356364,17.3860355 C18.6671136,15.3835839 19.5681648,13.1155839 19.5681648,10.178971 C19.5681648,7.37580968 18.6671136,4.97368065 16.7356364,2.97190645" id="Fill-16"></path>
                            </g>
                            <path d="M3.21849716,8.55174194 L3.08977557,9.08622581 L1.67318466,8.68519355 L1.54511648,9.219 C2.5748892,9.48658065 3.86210511,10.1538387 5.5354858,11.0886774 C8.4967358,12.957 11.5867074,14.4249677 14.8047472,15.2256774 L15.7064517,14.4249677 L15.0628438,14.4249677 C13.1313665,14.4249677 11.5867074,13.7577097 10.4282131,12.4231935 C11.715429,11.7552581 13.1313665,11.3549032 14.8047472,11.3549032 L15.8345199,11.4883548 L16.2213381,10.9545484 L15.0628438,10.9545484 L12.3590369,11.0886774 L12.4877585,10.6876452 L16.4787813,10.6876452 L16.864946,10.1538387 L12.7452017,10.1538387 L12.8739233,9.88693548 L17.1217358,9.88693548 L17.3798324,9.48658065 L13.1313665,9.35312903 L13.2600881,8.95277419 L17.6372756,9.08622581 L18.0234403,8.68519355 L14.547304,8.41896774 L11.071821,8.68519355 C10.5569347,10.2872903 9.52650852,11.0886774 7.98250284,11.0886774 C7.33824148,11.0886774 6.56591193,10.8210968 5.66420739,10.2872903 L5.27804261,10.0203871 L5.40741761,9.88693548 L7.46630966,10.6876452 L7.59568466,10.4207419 L3.21849716,8.55174194 Z" id="Fill-19" fill="#FFFFFF"></path>
                            <polygon id="Fill-21" fill="#FFFFFF" points="35.9180284 4.01425161 32.6993352 4.01425161 32.6993352 17.6283484 41.4543636 17.6283484 41.4543636 14.9586387 35.9180284 14.9586387"></polygon>
                            <path d="M51.1094631,7.88461935 L48.0194915,7.88461935 L48.0194915,13.4902645 C48.0194915,14.8254581 47.5046051,15.4927161 46.4748324,15.4927161 C45.5731278,15.4927161 45.1876165,14.8254581 45.1876165,13.4902645 L45.1876165,7.88461935 L42.0982983,7.88461935 L42.0982983,13.7578452 C42.0982983,14.8254581 42.2263665,15.7602968 42.6125312,16.2934258 C43.1274176,17.3610387 44.0291222,17.8948452 45.5731278,17.8948452 C46.6042074,17.8948452 47.5046051,17.4944903 48.2769347,16.6937806 L48.2769347,17.6279419 L51.1094631,17.6279419 L51.1094631,7.88461935 Z" id="Fill-23" fill="#FFFFFF"></path>
                        </g>
                    </g>
                </g>
            </g>
        </g>
    </g>
</svg>
